X:543
%%etbk:tnset id:279,pos:1,rep:3x,ant:undefined
%%etbk:skill ?
T:Reel de la fesse crampee
M:C
P: 8 Bars Guit Intro - (AB)2(AC)2A                 % play the parts in this order
%%score (M1) (M2)
V:M1  clef=treble  name="Whistle"   snm="Whistle"
V:M2  clef=treble  name="Box"    snm="Box" 
K:Fmaj
%            End of header, start of tune body:
P:A 
% 1 
[V:M1] F2CD FGAc | fcAc BAGA | F2CD FGAc | fagf ecBG |
[V:M2]       f8      |  -f8 | a8  | -a8 |
% 5
[V:M1] F2CD FGAc | fcAc BAGA | FEFA BABc | c2fe dBGE ||
[V:M2]       c'8      |  -c'8 | f8  | -g8 ||
